X:1
T:Moving On
M:4/4
L:1/8
K:G
 B2| G2 G G2 GG G| B2 B2 B2 Bc| dd d d2 dB d| e2 d B3| G2| A2 G2 C4-|\
 C2 A2 G2 E2| D6 BB| cA B c3 AB| cA B c3 d2| B2 F2 G4-| G4 z2||
